icons/grafana.svg

<?xml version="1.0" encoding="UTF-8"?>
<svg width="256px" height="279px" viewBox="0 0 256 279" version="1.1" xmlns="http://www.w3.org/2000/svg" xmlns:xlink="http://www.w3.org/1999/xlink" preserveAspectRatio="xMidYMid">
    <defs>
        <linearGradient x1="49.9947839%" y1="122.450358%" x2="49.9947839%" y2="31.1390083%" id="linearGradient-1">
            <stop stop-color="#FFF100" offset="0%"></stop>
            <stop stop-color="#F05A28" offset="100%"></stop>
        </linearGradient>
    </defs>
    <g>
        <path d="M255.5901,122.775215 C255.130268,118.100253 254.363881,112.735543 252.831107,106.757724 C251.298332,100.856543 248.999171,94.3422529 245.627068,87.5980463 C242.254965,80.8538398 237.886558,73.8797171 232.215293,67.0588719 C229.992771,64.376517 227.540332,61.7708008 224.934616,59.2417234 C228.84319,43.6840651 220.183016,30.195652 220.183016,30.195652 C205.238467,29.2759875 195.735267,34.8706134 192.209886,37.3996908 C191.596777,37.1697747 191.060306,36.8632199 190.447196,36.6333037 C187.918119,35.6370005 185.312402,34.6406972 182.553409,33.7976714 C179.871054,32.9546456 177.11206,32.1882585 174.276428,31.4985101 C171.440796,30.8087617 168.605164,30.2722907 165.692893,29.8124585 C165.156422,29.7358198 164.696589,29.659181 164.160118,29.5825423 C157.645828,8.73681302 138.945983,0 138.945983,0 C118.023614,13.258497 114.11504,31.8050649 114.11504,31.8050649 C114.11504,31.8050649 114.038402,32.1882585 113.885124,32.8780069 C112.735543,33.1845617 111.585963,33.5677553 110.436382,33.8743101 C108.826969,34.3341424 107.217556,34.9472521 105.684782,35.5603618 C104.075369,36.1734715 102.542595,36.7865811 100.933182,37.4763295 C97.7909949,38.8558263 94.6488077,40.3886005 91.5832593,42.0746522 C88.5943496,43.7607038 85.6820786,45.6000329 82.8464463,47.5160006 C82.4632527,47.3627232 82.0800592,47.2094458 82.0800592,47.2094458 C53.1106265,36.1734715 27.4366584,49.4319684 27.4366584,49.4319684 C25.0608584,80.2407301 39.0091038,99.6303239 41.7680973,103.155705 C41.0783489,105.071672 40.4652393,106.98764 39.8521296,108.903608 C37.7062457,115.877731 36.0968327,123.005131 35.1005295,130.439086 C34.9472521,131.512028 34.7939747,132.58497 34.717336,133.657911 C7.8937872,146.916408 0,173.969873 0,173.969873 C22.3018648,199.643841 48.3590265,201.253254 48.3590265,201.253254 C48.3590265,201.253254 48.4356652,201.176616 48.4356652,201.176616 C51.7311297,207.077796 55.5630653,212.672422 59.8548331,217.960493 C61.6941621,220.183016 63.5334912,222.252261 65.5260977,224.321506 C57.4023943,247.619674 66.6756783,266.932629 66.6756783,266.932629 C91.5066206,267.852294 107.830666,256.049932 111.279408,253.367578 C113.731847,254.210603 116.260924,254.976991 118.790002,255.5901 C126.453873,257.582707 134.271021,258.732287 142.08817,259.038842 C144.004137,259.115481 145.996744,259.19212 147.912712,259.115481 L148.832376,259.115481 L149.445486,259.115481 L150.671705,259.115481 L151.897925,259.038842 L151.897925,259.115481 C163.623647,275.82272 184.162822,278.19852 184.162822,278.19852 C198.800816,262.794139 199.643841,247.466397 199.643841,244.170932 C199.643841,244.170932 199.643841,244.094294 199.643841,243.941016 C199.643841,243.634461 199.643841,243.481184 199.643841,243.481184 C199.643841,243.251268 199.643841,243.021352 199.643841,242.791436 C202.70939,240.645552 205.621661,238.34639 208.380654,235.817313 C214.205196,230.529242 219.33999,224.474784 223.631758,217.960493 C224.014951,217.347384 224.398145,216.734274 224.781339,216.121164 C241.3353,217.040829 253.061023,205.851577 253.061023,205.851577 C250.302029,188.607867 240.492274,180.177609 238.423029,178.568196 C238.423029,178.568196 238.34639,178.491557 238.193113,178.414919 C238.039835,178.33828 238.039835,178.261641 238.039835,178.261641 C238.039835,178.261641 238.039835,178.261641 238.039835,178.261641 C237.963197,178.185002 237.809919,178.108364 237.656642,178.031725 C237.733281,176.958783 237.809919,175.96248 237.886558,174.889538 C238.039835,173.050209 238.039835,171.134241 238.039835,169.294912 L238.039835,167.915415 L238.039835,167.225667 L238.039835,166.842473 C238.039835,166.382641 238.039835,166.535918 238.039835,166.382641 L237.963197,165.23306 L237.886558,163.700286 C237.886558,163.163815 237.809919,162.703983 237.733281,162.244151 C237.656642,161.784318 237.656642,161.247847 237.580003,160.788015 L237.426726,159.33188 L237.19681,157.875744 C236.890255,155.959776 236.5837,154.120447 236.123868,152.204479 C234.361177,144.770525 231.448906,137.719763 227.69361,131.35875 C223.861674,124.997737 219.110074,119.403111 213.668725,114.651511 C208.304016,109.899911 202.249558,106.067976 195.965183,103.232343 C189.60417,100.396711 183.013241,98.557382 176.422312,97.7143562 C173.126847,97.2545239 169.831383,97.1012465 166.535918,97.1778852 L165.309699,97.1778852 L165.003144,97.1778852 C164.926505,97.1778852 164.543312,97.1778852 164.619951,97.1778852 L164.08348,97.1778852 L162.85726,97.2545239 C162.397428,97.2545239 161.937596,97.3311626 161.554402,97.3311626 C159.868351,97.48444 158.182299,97.7143562 156.572886,98.020911 C149.981957,99.2471304 143.774221,101.62293 138.332873,104.918395 C132.891524,108.21386 128.139924,112.275711 124.307989,116.874034 C120.476053,121.472356 117.487144,126.60715 115.417898,131.895221 C113.348653,137.183292 112.199072,142.701279 111.892518,147.98935 C111.815879,149.292208 111.815879,150.671705 111.815879,151.974563 C111.815879,152.281118 111.815879,152.664312 111.815879,152.970867 L111.892518,154.043809 C111.969156,154.656918 111.969156,155.346667 112.045795,155.959776 C112.275711,158.642131 112.812182,161.247847 113.501931,163.700286 C114.958066,168.681802 117.257227,173.203486 120.09286,177.035422 C122.928492,180.867357 126.377234,184.009544 129.979253,186.538622 C133.581273,188.991061 137.489847,190.753751 141.321783,191.903332 C145.153718,193.052912 148.985654,193.512745 152.587673,193.512745 C153.047505,193.512745 153.507338,193.512745 153.890531,193.512745 C154.120447,193.512745 154.350363,193.512745 154.580279,193.512745 C154.810196,193.512745 155.040112,193.512745 155.270028,193.436106 C155.653221,193.436106 156.036415,193.359467 156.419609,193.359467 C156.496247,193.359467 156.649525,193.359467 156.726163,193.282828 L157.109357,193.20619 C157.339273,193.20619 157.569189,193.129551 157.799105,193.129551 C158.258938,193.052912 158.642131,192.976274 159.101963,192.899635 C159.561796,192.822996 159.944989,192.746357 160.328183,192.59308 C161.171209,192.439803 161.937596,192.133248 162.703983,191.903332 C164.236757,191.366861 165.769531,190.753751 167.072389,190.064003 C168.451886,189.374254 169.678106,188.531228 170.904325,187.764841 C171.21088,187.534925 171.594073,187.305009 171.900628,186.998454 C173.126847,186.002151 173.356764,184.162822 172.36046,182.936602 C171.517435,181.863661 169.98466,181.557106 168.758441,182.246854 C168.451886,182.400131 168.145331,182.553409 167.838776,182.706686 C166.765835,183.243157 165.692893,183.70299 164.543312,184.086183 C163.393731,184.469377 162.167512,184.775932 160.941292,185.005848 C160.328183,185.082486 159.715073,185.159125 159.025325,185.235764 C158.71877,185.235764 158.412215,185.312402 158.029021,185.312402 C157.722467,185.312402 157.339273,185.312402 157.109357,185.312402 C156.802802,185.312402 156.496247,185.312402 156.189692,185.312402 C155.806499,185.312402 155.423305,185.312402 155.040112,185.235764 C155.040112,185.235764 154.810196,185.235764 154.963473,185.235764 L154.810196,185.235764 L154.580279,185.235764 C154.427002,185.235764 154.197086,185.235764 154.043809,185.159125 C153.660615,185.082486 153.35406,185.082486 152.970867,185.005848 C150.135234,184.622654 147.299602,183.779628 144.617247,182.553409 C141.858254,181.32719 139.252537,179.641138 136.876737,177.495254 C134.500937,175.34937 132.431692,172.820293 130.822279,169.908022 C129.212866,166.995751 128.063286,163.776925 127.526815,160.404822 C127.296898,158.71877 127.143621,156.95608 127.22026,155.270028 C127.22026,154.810196 127.296898,154.350363 127.296898,153.890531 C127.296898,154.043809 127.296898,153.813892 127.296898,153.813892 L127.296898,153.660615 L127.296898,153.277421 C127.296898,153.047505 127.373537,152.817589 127.373537,152.587673 C127.450176,151.668008 127.603453,150.748344 127.756731,149.828679 C129.059589,142.471363 132.738247,135.267324 138.409512,129.825976 C139.865647,128.446479 141.398421,127.22026 143.007834,126.070679 C144.617247,124.921098 146.379937,123.924795 148.219267,123.081769 C150.058596,122.238744 151.897925,121.548995 153.890531,121.012524 C155.806499,120.476053 157.799105,120.169498 159.868351,119.939582 C160.864654,119.862944 161.860957,119.786305 162.933899,119.786305 C163.240454,119.786305 163.393731,119.786305 163.623647,119.786305 L164.466673,119.786305 L165.003144,119.786305 C165.23306,119.786305 165.003144,119.786305 165.079783,119.786305 L165.309699,119.786305 L166.152725,119.862944 C168.375247,120.016221 170.521131,120.322776 172.667015,120.859247 C176.958783,121.778911 181.173912,123.388324 185.082486,125.534208 C192.899635,129.902615 199.567203,136.646821 203.629054,144.770525 C205.6983,148.832376 207.154435,153.200783 207.844183,157.722467 C207.997461,158.872047 208.150738,160.021628 208.227377,161.171209 L208.304016,162.014234 L208.380654,162.85726 C208.380654,163.163815 208.380654,163.47037 208.380654,163.700286 C208.380654,164.006841 208.380654,164.313396 208.380654,164.543312 L208.380654,165.309699 L208.380654,166.152725 C208.380654,166.689196 208.304016,167.60886 208.304016,168.145331 C208.227377,169.371551 208.0741,170.674409 207.920822,171.900628 C207.767545,173.126847 207.537629,174.353067 207.307712,175.579286 C207.077796,176.805506 206.771241,178.031725 206.464687,179.181306 C205.851577,181.557106 205.08519,183.932906 204.165525,186.308706 C202.326196,190.907028 199.873758,195.352074 196.961487,199.413925 C191.060306,207.537629 183.013241,214.128558 173.816596,218.343687 C169.218273,220.412932 164.390034,221.945706 159.408518,222.712093 C156.95608,223.171926 154.427002,223.401842 151.897925,223.47848 L151.438092,223.47848 L151.054899,223.47848 L150.211873,223.47848 L148.985654,223.47848 L148.372544,223.47848 C148.679099,223.47848 148.295905,223.47848 148.295905,223.47848 L148.065989,223.47848 C146.686492,223.47848 145.383634,223.401842 144.004137,223.248564 C138.639428,222.865371 133.351357,221.869068 128.139924,220.412932 C123.005131,218.956796 118.023614,216.887551 113.272014,214.435113 C103.845453,209.376958 95.3385561,202.479474 88.747627,194.125854 C85.4521624,189.987364 82.5398914,185.46568 80.1640914,180.790719 C77.7882914,176.115757 75.8723236,171.134241 74.4928268,166.152725 C73.11333,161.09457 72.2703042,155.959776 71.8871106,150.748344 L71.8104719,149.752041 L71.8104719,149.522125 L71.8104719,149.292208 L71.8104719,148.832376 L71.8104719,147.98935 L71.8104719,147.759434 L71.8104719,147.452879 L71.8104719,146.83977 L71.8104719,145.61355 L71.8104719,145.383634 C71.8104719,145.383634 71.8104719,145.460273 71.8104719,145.306996 L71.8104719,144.847163 C71.8104719,144.234054 71.8104719,143.544305 71.8104719,142.931195 C71.8871106,140.402118 72.1170268,137.719763 72.4235816,135.114047 C72.7301365,132.508331 73.1899687,129.825976 73.7264397,127.22026 C74.2629107,124.614544 74.8760204,122.008827 75.6424075,119.403111 C77.098543,114.268318 78.937872,109.286801 81.0837559,104.61184 C85.4521624,95.2619174 91.123427,86.9082979 97.9442723,80.2407301 C99.6303239,78.5546785 101.393014,77.0219043 103.232343,75.48913 C105.071672,74.0329945 106.98764,72.6534978 108.980247,71.3506397 C110.896214,70.0477816 112.96546,68.8982009 115.034705,67.825259 C116.031008,67.288788 117.10395,66.752317 118.176892,66.2924848 C118.713363,66.0625686 119.249834,65.8326525 119.786305,65.6027364 C120.322776,65.3728202 120.859247,65.1429041 121.395718,64.912988 C123.541602,63.9933234 125.764124,63.2269363 128.063286,62.5371879 C128.599757,62.3839105 129.212866,62.2306331 129.749337,62.000717 C130.285808,61.8474395 130.898918,61.6941621 131.435389,61.5408847 C132.58497,61.2343299 133.73455,60.927775 134.884131,60.6978589 C135.420602,60.5445815 136.033712,60.4679427 136.646821,60.3146653 C137.259931,60.1613879 137.796402,60.0847492 138.409512,59.9314718 C139.022621,59.8548331 139.559092,59.7015556 140.172202,59.6249169 L141.015228,59.4716395 L141.934892,59.3183621 C142.548002,59.2417234 143.084473,59.1650847 143.697583,59.088446 C144.387331,59.0118072 145.000441,58.9351685 145.690189,58.8585298 C146.22666,58.7818911 147.146325,58.7052524 147.682796,58.6286137 C148.065989,58.551975 148.525821,58.551975 148.909015,58.4753363 L149.752041,58.3986976 L150.135234,58.3220588 L150.595067,58.3220588 C151.284815,58.2454201 151.897925,58.2454201 152.587673,58.1687814 L153.583976,58.0921427 C153.583976,58.0921427 153.96717,58.0921427 153.660615,58.0921427 L153.890531,58.0921427 L154.350363,58.0921427 C154.886834,58.0921427 155.499944,58.015504 156.036415,58.015504 C158.258938,57.9388653 160.558099,57.9388653 162.780622,58.015504 C167.225667,58.1687814 171.594073,58.7052524 175.809202,59.4716395 C184.316099,61.0810524 192.286525,63.7634073 199.567203,67.3654267 C206.84788,70.8908074 213.285532,75.2592139 218.956796,80.010814 C219.33999,80.3173688 219.646545,80.6239237 220.029738,80.9304785 C220.336293,81.2370334 220.719487,81.5435882 221.026042,81.850143 C221.71579,82.4632527 222.3289,83.0763624 223.018648,83.6894721 C223.708397,84.3025818 224.321506,84.9156915 224.934616,85.5288012 C225.547726,86.1419108 226.160835,86.7550205 226.773945,87.4447689 C229.149745,89.9738464 231.372268,92.5029238 233.364874,95.10864 C237.350087,100.243434 240.568913,105.454866 243.09799,110.359743 C243.251268,110.666298 243.404545,110.972853 243.557823,111.279408 C243.7111,111.585963 243.864377,111.892518 244.017655,112.199072 C244.32421,112.812182 244.630765,113.425292 244.860681,114.038402 C245.167236,114.651511 245.397152,115.187982 245.703707,115.801092 C245.933623,116.414202 246.240178,116.950673 246.470094,117.563782 C247.389758,119.862944 248.309423,122.085466 248.999171,124.154711 C250.148752,127.526815 250.991778,130.515724 251.681526,133.121441 C251.911442,134.194382 252.907745,134.884131 253.980687,134.730853 C255.130268,134.654215 255.973294,133.73455 255.973294,132.58497 C256.049932,129.825976 255.973294,126.530511 255.5901,122.775215 Z" fill="url(#linearGradient-1)" fill-rule="nonzero"></path>
    </g>
</svg>

<svg xmlns="http://www.w3.org/2000/svg" viewBox="0 0 256 278.199">
  <defs>
    <linearGradient id="a" x1="133.42" x2="133.42" y1="326.781" y2="83.1" gradientTransform="scale(.95927 1.04246)" gradientUnits="userSpaceOnUse">
      <stop offset="0%" stop-color="#FFF100"/>
      <stop offset="100%" stop-color="#F05A28"/>
    </linearGradient>
  </defs>
  <path fill="url(#a)" d="M255.59 122.775c-.46-4.675-1.226-10.04-2.759-16.017a98.01 98.01 0 0 0-7.204-19.16 106.69 106.69 0 0 0-13.412-20.54c-2.222-2.681-4.675-5.287-7.28-7.816 3.908-15.558-4.752-29.046-4.752-29.046-14.945-.92-24.448 4.675-27.973 7.204-.613-.23-1.15-.537-1.763-.767-2.529-.996-5.135-1.992-7.894-2.835a130.376 130.376 0 0 0-8.277-2.3c-2.835-.69-5.67-1.226-8.583-1.686-.537-.076-.996-.153-1.533-.23C157.646 8.738 138.946 0 138.946 0c-20.922 13.258-24.831 31.805-24.831 31.805s-.077.383-.23 1.073c-1.15.307-2.299.69-3.449.996-1.609.46-3.218 1.073-4.751 1.686-1.61.613-3.142 1.227-4.752 1.916a117.205 117.205 0 0 0-9.35 4.599c-2.989 1.686-5.9 3.525-8.737 5.441l-.766-.307c-28.97-11.036-54.643 2.223-54.643 2.223-2.376 30.809 11.572 50.198 14.331 53.724-.69 1.916-1.303 3.832-1.916 5.748-2.146 6.974-3.755 14.101-4.751 21.535-.154 1.073-.307 2.146-.384 3.219C7.894 146.916 0 173.97 0 173.97c22.302 25.674 48.359 27.283 48.359 27.283l.077-.076c3.295 5.9 7.127 11.495 11.419 16.784a111.903 111.903 0 0 0 5.671 6.36c-8.124 23.299 1.15 42.612 1.15 42.612 24.83.92 41.155-10.883 44.603-13.565a84.475 84.475 0 0 0 7.511 2.222 109.703 109.703 0 0 0 23.298 3.449c1.916.076 3.909.153 5.825.076H150.672l1.226-.076v.076c11.726 16.708 32.265 19.084 32.265 19.084 14.638-15.405 15.48-30.733 15.48-34.028v-1.38c3.066-2.145 5.979-4.445 8.738-6.974 5.824-5.288 10.959-11.342 15.25-17.857l1.15-1.839c16.554.92 28.28-10.27 28.28-10.27-2.759-17.243-12.569-25.673-14.638-27.283 0 0-.077-.076-.23-.153-.153-.077-.153-.153-.153-.153-.077-.077-.23-.154-.383-.23.076-1.073.153-2.07.23-3.142.153-1.84.153-3.756.153-5.595v-2.913l-.077-1.149-.076-1.533c0-.536-.077-.996-.154-1.456-.076-.46-.076-.996-.153-1.456l-.153-1.456-.23-1.456c-.307-1.916-.613-3.756-1.073-5.672-1.763-7.433-4.675-14.484-8.43-20.845a70.373 70.373 0 0 0-14.025-16.708c-5.365-4.751-11.42-8.583-17.704-11.419-6.36-2.835-12.952-4.675-19.543-5.518-3.295-.46-6.59-.613-9.886-.536h-2.452l-1.227.077c-.46 0-.92.076-1.303.076a51.957 51.957 0 0 0-4.981.69c-6.591 1.226-12.799 3.602-18.24 6.897-5.441 3.296-10.193 7.358-14.025 11.956a54.7 54.7 0 0 0-8.89 15.021 52.857 52.857 0 0 0-3.525 16.094c-.077 1.303-.077 2.683-.077 3.986v.996l.077 1.073c.076.613.076 1.303.153 1.916.23 2.682.766 5.288 1.456 7.74 1.456 4.982 3.755 9.503 6.59 13.335 2.837 3.832 6.285 6.975 9.887 9.504 3.602 2.452 7.51 4.215 11.343 5.364 3.832 1.15 7.664 1.61 11.266 1.61H154.58c.23 0 .46 0 .69-.077.382 0 .765-.076 1.149-.076.076 0 .23 0 .306-.077l.383-.077c.23 0 .46-.076.69-.076.46-.077.843-.154 1.303-.23.46-.077.843-.153 1.226-.307.843-.153 1.61-.46 2.376-.69 1.533-.536 3.066-1.15 4.368-1.839 1.38-.69 2.606-1.533 3.832-2.299.307-.23.69-.46.997-.766 1.226-.997 1.456-2.836.46-4.062-.844-1.073-2.376-1.38-3.602-.69l-.92.46a24.914 24.914 0 0 1-3.296 1.38c-1.15.383-2.375.69-3.602.919-.613.077-1.226.153-1.916.23-.306 0-.613.077-.996.077h-1.84c-.382 0-.766 0-1.149-.077H154.58c-.153 0-.383 0-.536-.077-.383-.076-.69-.076-1.073-.153-2.836-.383-5.671-1.226-8.354-2.452a29.274 29.274 0 0 1-7.74-5.059c-2.376-2.145-4.445-4.674-6.055-7.587-1.609-2.912-2.759-6.13-3.295-9.503-.23-1.686-.383-3.449-.307-5.135 0-.46.077-.92.077-1.38v-.612c0-.23.077-.46.077-.69.076-.92.23-1.84.383-2.76 1.303-7.356 4.981-14.56 10.653-20.002 1.456-1.38 2.988-2.605 4.598-3.755a31.705 31.705 0 0 1 5.211-2.989 35.739 35.739 0 0 1 5.672-2.07c1.916-.536 3.908-.842 5.977-1.072.997-.077 1.993-.153 3.066-.153h2.376l.843.076c2.222.153 4.368.46 6.514.996 4.292.92 8.507 2.53 12.415 4.675 7.818 4.369 14.485 11.113 18.547 19.237 2.07 4.062 3.525 8.43 4.215 12.952.153 1.15.307 2.299.383 3.448l.077.843.077.843v3.296c0 .536-.077 1.456-.077 1.993-.077 1.226-.23 2.529-.383 3.755-.154 1.226-.383 2.452-.613 3.679a49.548 49.548 0 0 1-.843 3.602 64.128 64.128 0 0 1-2.3 7.127 62.416 62.416 0 0 1-7.204 13.105c-5.9 8.124-13.948 14.715-23.144 18.93-4.599 2.07-9.427 3.602-14.409 4.368-2.452.46-4.981.69-7.51.767h-3.832a36.07 36.07 0 0 1-4.062-.23c-5.365-.383-10.653-1.38-15.864-2.836-5.135-1.456-10.116-3.525-14.868-5.978-9.427-5.058-17.933-11.955-24.524-20.309a79.015 79.015 0 0 1-8.584-13.335 79.197 79.197 0 0 1-5.671-14.638c-1.38-5.058-2.223-10.193-2.606-15.404l-.077-.997v-6.821c.077-2.529.307-5.211.614-7.817.306-2.605.766-5.288 1.302-7.893.537-2.606 1.15-5.212 1.916-7.818a102.856 102.856 0 0 1 5.442-14.79c4.368-9.35 10.04-17.704 16.86-24.372 1.686-1.686 3.449-3.219 5.288-4.752a78.196 78.196 0 0 1 5.748-4.138c1.916-1.303 3.985-2.453 6.055-3.525a39.773 39.773 0 0 1 3.142-1.533l1.61-.69 1.609-.69c2.146-.92 4.368-1.686 6.667-2.376.537-.153 1.15-.306 1.686-.536.537-.153 1.15-.307 1.686-.46 1.15-.306 2.3-.613 3.45-.843.536-.153 1.149-.23 1.762-.383s1.15-.23 1.762-.383c.614-.077 1.15-.23 1.763-.307l.843-.153.92-.153c.613-.077 1.15-.154 1.763-.23.69-.077 1.302-.154 1.992-.23.537-.077 1.456-.153 1.993-.23.383-.077.843-.077 1.226-.153l.843-.077.383-.077h.46c.69-.076 1.303-.076 1.993-.153l.996-.077h.767c.536 0 1.149-.076 1.685-.076a98.942 98.942 0 0 1 6.745 0c4.445.153 8.813.69 13.028 1.456 8.507 1.61 16.477 4.292 23.758 7.894 7.28 3.525 13.718 7.893 19.39 12.645.383.307.69.613 1.073.92.306.306.69.613.996.92.69.613 1.303 1.226 1.993 1.839.69.613 1.302 1.226 1.916 1.84a44.302 44.302 0 0 1 1.839 1.915c2.376 2.53 4.598 5.058 6.59 7.664a98.897 98.897 0 0 1 9.734 15.251l.46.92.46.92c.306.612.613 1.226.843 1.839.306.613.536 1.15.843 1.762.23.613.536 1.15.766 1.763.92 2.3 1.84 4.522 2.53 6.591 1.149 3.372 1.992 6.361 2.681 8.967a2.043 2.043 0 0 0 2.3 1.61c1.15-.077 1.992-.997 1.992-2.147.077-2.759 0-6.054-.383-9.81z" style="fill:url(#a)"/>
</svg>
